X: 947
T: The Top Of The Hill.
B:O'Neill's 947
N:"collected by F. O'Neill."
Z:Transcribed by Tom Keays (htkeays@mailbox.syr.edu)
Z:abc 1.6
M:6/8
R:Jig
L:1/8
K:C
ABc e2 A | g2 A e2 A | ABc e2 A | g z e dBG |
ABc eAA | gAA eAA | BGB gfe | dge dBG :|
|| gAg g2 f | e^f^g a3 | aAa g z e | dge dBG |
gAg g2 f | e^f^g a3 | aAa g2 e | dge dBG :|


